<jittershader name="fill-flat-quads">
	<description>Default Shader </description>
	<param name="position" type="vec3" state="POSITION" />
	<param name="modelViewProjectionMatrix" type="mat4" state="MODELVIEW_PROJECTION_MATRIX" />
	<param name="color" type="vec4" state="COLOR" />
	<language name="glsl" version="1.5">
		<bind param="position" program="vp" />
		<bind param="modelViewProjectionMatrix" program="vp" />
		<bind param="color" program="vp" />
		<program name="vp" type="vertex">
<![CDATA[
#version 330 core
uniform mat4 modelViewProjectionMatrix;
in vec3 position;
in vec4 color;

out jit_PerVertex {
	flat vec4 color;	
} jit_out;

void main() {	
	gl_Position = modelViewProjectionMatrix * vec4(position, 1.);	
	jit_out.color = color;
}
]]>
		</program>
		<program name="fp" type="fragment">
<![CDATA[
#version 330 core

in jit_PerVertex {
	flat vec4 color;
} jit_in;

out vec4 color;

void main() {
	color = vec4(1,0,0,1);
}	
]]>
		</program>
	</language>
</jittershader>
