<jittershader name="fill-flat-quads">
	<description>Default Shader </description>
	<param name="position" type="vec3" state="POSITION" />
	<param name="modelViewProjectionMatrix" type="mat4" state="MODELVIEW_PROJECTION_MATRIX" />
	<param name="buf" type="int" default="0" />
	<language name="glsl" version="1.5">
		<bind param="position" program="vp" />
		<bind param="modelViewProjectionMatrix" program="vp" />
		<bind param="buf" program="vp" />
		<program name="vp" type="vertex">
<![CDATA[
#version 330 core
uniform mat4 modelViewProjectionMatrix;
uniform samplerBuffer buf;
in vec3 position;

out jit_PerVertex {
	smooth vec4 color;	
} jit_out;

void main() {	
	gl_Position = modelViewProjectionMatrix * vec4(position, 1.);	
	int index = int((position.x*0.5 + 0.5) + 2*(position.y*0.5 + 0.5));
	jit_out.color = texelFetch(buf, index);
}
]]>
		</program>
		<program name="fp" type="fragment">
<![CDATA[
#version 330 core

in jit_PerVertex {
	smooth vec4 color;
} jit_in;

out vec4 color;

void main() {
	color = jit_in.color;
}	
]]>
		</program>
	</language>
</jittershader>
